public/images/type-icons/normal.svg

<svg fill="none" height="512" viewBox="0 0 512 512" width="512" xmlns="http://www.w3.org/2000/svg"><path clip-rule="evenodd" d="m481 256c0 124.264-100.736 225-225 225s-225-100.736-225-225 100.736-225 225-225 225 100.736 225 225zm-96.429 0c0 71.008-57.563 128.571-128.571 128.571s-128.571-57.563-128.571-128.571 57.563-128.571 128.571-128.571 128.571 57.563 128.571 128.571z" fill="#fff" fill-rule="evenodd"/></svg>

<svg width="512" height="512" viewBox="0 0 512 512" fill="none" xmlns="http://www.w3.org/2000/svg">
<path fill-rule="evenodd" clip-rule="evenodd" d="M481 256C481 380.264 380.264 481 256 481C131.736 481 31 380.264 31 256C31 131.736 131.736 31 256 31C380.264 31 481 131.736 481 256ZM384.571 256C384.571 327.008 327.008 384.571 256 384.571C184.992 384.571 127.429 327.008 127.429 256C127.429 184.992 184.992 127.429 256 127.429C327.008 127.429 384.571 184.992 384.571 256Z" fill="white"/>
</svg>
